icons/jsconfig.svg

<svg xmlns="http://www.w3.org/2000/svg" viewBox="0 0 32 32">
  <path d="M15,2H6A2.00587,2.00587,0,0,0,4,4V26a2.00591,2.00591,0,0,0,2,2h6V24H6V22h6V20H6V18h6V16H6V14h6V12h2V4l8,8h2V11Z" style="fill: #757575"/>
  <path d="M12,12V30H30V12Zm8,12a2.00591,2.00591,0,0,1-2,2H16a2.00591,2.00591,0,0,1-2-2V22h2v2h2V16h2Zm8-6H24v2h2a2.00587,2.00587,0,0,1,2,2v2a2.00591,2.00591,0,0,1-2,2H22V24h4V22H24a2.00591,2.00591,0,0,1-2-2V18a2.00587,2.00587,0,0,1,2-2h4Z" style="fill: #ffca28"/>
</svg>

<svg version="1.1" viewBox="0 0 32 32" xmlns="http://www.w3.org/2000/svg">
 <path d="M15,2H6A2.00587,2.00587,0,0,0,4,4V26a2.00591,2.00591,0,0,0,2,2h6V24H6V22h6V20H6V18h6V16H6V14h6V12h2V4l8,8h2V11Z" fill="#757575"/>
 <path d="m12 12v18h18v-18zm8 12a2.0059 2.0059 0 0 1-2 2h-2a2.0059 2.0059 0 0 1-2-2v-2h2v2h2v-8h2zm8-6h-4v2h2a2.0059 2.0059 0 0 1 2 2v2a2.0059 2.0059 0 0 1-2 2h-4v-2h4v-2h-2a2.0059 2.0059 0 0 1-2-2v-2a2.0059 2.0059 0 0 1 2-2h4z" fill="#ffca28"/>
</svg>
